X:44
T:B.F. Hilliker's Q.S.
S:American Veteran Fifer, #44
C:To B. F. Hilliker Los Angeles Cal. Drummer Co.A. Son Wm. Live Eagle Read by A.F. Hopkins
M:2/4
L:1/16
Q:1/8=180
K:D 
%%MIDI program 72
%%MIDI transpose 8
%%MIDI ratio 3 1
|: AB | Acef efge | fadc d2cd | e2fa efaf | gage dBGA |
BABc defg | fd2c d2cd | edfd efdB | A2z2z2 :|
|: cd | e2a2- a2>f2 | gedB G2>A2 | Bdga gfag | fd2c d2cd |
e2a2- abaf | gedB G2>A2 | Be2f edBG | A2z2z2 :|


